src/assets/svg/icons/fa/nuevos/classic/duotone/plane-circle-check classic duotone.svg

<svg xmlns="http://www.w3.org/2000/svg" viewBox="0 0 640 512"><!--! Font Awesome Pro 6.4.0 by @fontawesome - https://fontawesome.com License - https://fontawesome.com/license (Commercial License) Copyright 2023 Fonticons, Inc. --><defs><style>.fa-secondary{opacity:.4}</style></defs><path class="fa-primary" d="M496 512a144 144 0 1 0 0-288 144 144 0 1 0 0 288zm67.3-164.7l-72 72c-6.2 6.2-16.4 6.2-22.6 0l-40-40c-6.2-6.2-6.2-16.4 0-22.6s16.4-6.2 22.6 0L480 385.4l60.7-60.7c6.2-6.2 16.4-6.2 22.6 0s6.2 16.4 0 22.6z"/><path class="fa-secondary" d="M192 93.7C192 59.5 221 0 256 0c36 0 64 59.5 64 93.7v84.6l77.1 44.1C350.6 254 320 307.4 320 368c0 54.2 24.5 102.7 63.1 135c-2 5.3-7.1 9-13.1 9c-1.3 0-2.6-.2-3.9-.5L256 480 145.9 511.5c-1.3 .4-2.6 .5-3.9 .5c-7.8 0-14-6.3-14-14V456c0-5 2.4-9.8 6.4-12.8L192 400l0-70.9-171.6 49C10.2 381.1 0 373.4 0 362.8V297.3c0-5.7 3.1-11 8.1-13.9L192 178.3V93.7z"/></svg>

<svg xmlns="http://www.w3.org/2000/svg" viewBox="0 0 640 512"><defs><style>.fa-secondary{opacity:.4}</style></defs><path class="fa-primary" d="M352 368C352 288.5 416.5 224 496 224C575.5 224 640 288.5 640 368C640 447.5 575.5 512 496 512C416.5 512 352 447.5 352 368zM563.3 347.3C569.6 341.1 569.6 330.9 563.3 324.7C557.1 318.4 546.9 318.4 540.7 324.7L480 385.4L451.3 356.7C445.1 350.4 434.9 350.4 428.7 356.7C422.4 362.9 422.4 373.1 428.7 379.3L468.7 419.3C474.9 425.6 485.1 425.6 491.3 419.3L563.3 347.3z"/><path class="fa-secondary" d="M192 93.68C192 59.53 221 0 256 0C292 0 320 59.53 320 93.68V178.3L397.1 222.4C350.6 254 320 307.4 320 368C320 422.2 344.5 470.7 383.1 502.1C381 508.3 375.9 512 369.1 512C368.7 512 367.4 511.8 366.1 511.5L256 480L145.9 511.5C144.6 511.8 143.3 512 142 512C134.3 512 128 505.7 128 497.1V456C128 450.1 130.4 446.2 134.4 443.2L192 400V329.1L20.4 378.2C10.17 381.1 0 373.4 0 362.8V297.3C0 291.5 3.076 286.2 8.062 283.4L192 178.3L192 93.68z"/></svg>
